www/assets/icons/queue_music.svg

<svg xmlns="http://www.w3.org/2000/svg" width="24" height="24" viewBox="0 0 24 24" fill='currentColor'><path d="M14.5 5h-12v2h12zm0 4h-12v2h12zm-12 6h8v-2h-8zm14-10v8.18c-.31-.11-.65-.18-1-.18-1.66 0-3 1.34-3 3s1.34 3 3 3 3-1.34 3-3V7h3V5z"/></svg>

<svg width="24" height="24" viewBox="0 0 24 24" xmlns="http://www.w3.org/2000/svg" fill='currentColor'><path d="M14.5 5H2.5V7H14.5V5ZM14.5 9H2.5V11H14.5V9ZM2.5 15H10.5V13H2.5V15ZM16.5 5V13.18C16.19 13.07 15.85 13 15.5 13C13.84 13 12.5 14.34 12.5 16C12.5 17.66 13.84 19 15.5 19C17.16 19 18.5 17.66 18.5 16V7H21.5V5H16.5Z"/></svg>
